build/img/sprites/04.svg

<svg width="70" height="32" viewBox="0 0 70 32" fill="none" xmlns="http://www.w3.org/2000/svg">
<mask id="path-1-outside-1_627_4216" maskUnits="userSpaceOnUse" x="0" y="0" width="70" height="32" fill="black">
<rect fill="white" width="70" height="32"/>
<path d="M13.84 30.64C11.36 30.64 9.16 30.0667 7.24 28.92C5.34667 27.7733 3.85333 26.1067 2.76 23.92C1.69333 21.7333 1.16 19.0933 1.16 16C1.16 12.9067 1.69333 10.2667 2.76 8.08C3.85333 5.89333 5.34667 4.22666 7.24 3.08C9.16 1.93333 11.36 1.36 13.84 1.36C16.32 1.36 18.5067 1.93333 20.4 3.08C22.32 4.22666 23.8133 5.89333 24.88 8.08C25.9733 10.2667 26.52 12.9067 26.52 16C26.52 19.0933 25.9733 21.7333 24.88 23.92C23.8133 26.1067 22.32 27.7733 20.4 28.92C18.5067 30.0667 16.32 30.64 13.84 30.64ZM13.84 23.08C14.4533 23.08 15 22.8667 15.48 22.44C15.96 22.0133 16.3333 21.28 16.6 20.24C16.8933 19.2 17.04 17.7867 17.04 16C17.04 14.1867 16.8933 12.7733 16.6 11.76C16.3333 10.72 15.96 9.98667 15.48 9.56C15 9.13333 14.4533 8.92 13.84 8.92C13.2267 8.92 12.68 9.13333 12.2 9.56C11.72 9.98667 11.3333 10.72 11.04 11.76C10.7733 12.7733 10.64 14.1867 10.64 16C10.64 17.7867 10.7733 19.2 11.04 20.24C11.3333 21.28 11.72 22.0133 12.2 22.44C12.68 22.8667 13.2267 23.08 13.84 23.08ZM28.6153 25.2V19.2L40.4953 2H50.1753L38.7353 19.2L34.3353 17.88H56.0153V25.2H28.6153ZM43.1353 30V25.2L43.4153 17.88V13.6H52.2953V30H43.1353ZM63.0331 30.4C61.5398 30.4 60.2865 29.92 59.2731 28.96C58.2598 27.9733 57.7531 26.72 57.7531 25.2C57.7531 23.6533 58.2598 22.4133 59.2731 21.48C60.2865 20.5467 61.5398 20.08 63.0331 20.08C64.5265 20.08 65.7798 20.5467 66.7931 21.48C67.8065 22.4133 68.3131 23.6533 68.3131 25.2C68.3131 26.72 67.8065 27.9733 66.7931 28.96C65.7798 29.92 64.5265 30.4 63.0331 30.4Z"/>
</mask>
<path d="M7.24 28.92L6.72196 29.7754L6.72726 29.7785L7.24 28.92ZM2.76 23.92L1.86119 24.3584L1.86557 24.3672L2.76 23.92ZM2.76 8.08L1.86553 7.63276L1.86123 7.64157L2.76 8.08ZM7.24 3.08L6.72725 2.22144L6.72197 2.22464L7.24 3.08ZM20.4 3.08L19.882 3.93537L19.8873 3.93854L20.4 3.08ZM24.88 8.08L23.9812 8.51844L23.9856 8.52721L24.88 8.08ZM24.88 23.92L23.9855 23.4728L23.9812 23.4816L24.88 23.92ZM20.4 28.92L19.8873 28.0614L19.882 28.0646L20.4 28.92ZM16.6 20.24L15.6376 19.9685L15.6343 19.98L15.6313 19.9916L16.6 20.24ZM16.6 11.76L15.6313 12.0084L15.6352 12.0233L15.6394 12.0381L16.6 11.76ZM15.48 9.56L16.1444 8.81259L16.1444 8.81259L15.48 9.56ZM12.2 9.56L11.5356 8.81259V8.81259L12.2 9.56ZM11.04 11.76L10.0776 11.4885L10.0752 11.497L10.0729 11.5055L11.04 11.76ZM11.04 20.24L10.0713 20.4884L10.0743 20.5L10.0776 20.5115L11.04 20.24ZM13.84 29.64C11.5203 29.64 9.50125 29.1057 7.75274 28.0615L6.72726 29.7785C8.81876 31.0276 11.1997 31.64 13.84 31.64V29.64ZM7.75804 28.0646C6.04278 27.0258 4.67246 25.5089 3.65443 23.4728L1.86557 24.3672C3.03421 26.7045 4.65055 28.5208 6.72197 29.7754L7.75804 28.0646ZM3.65877 23.4816C2.67427 21.4634 2.16 18.9814 2.16 16H0.16C0.16 19.2053 0.712395 22.0033 1.86123 24.3584L3.65877 23.4816ZM2.16 16C2.16 13.0186 2.67427 10.5366 3.65877 8.51842L1.86123 7.64157C0.712395 9.99669 0.16 12.7947 0.16 16H2.16ZM3.65443 8.52721C4.67246 6.49114 6.04278 4.97417 7.75803 3.93536L6.72197 2.22464C4.65055 3.47916 3.03421 5.29552 1.86557 7.63278L3.65443 8.52721ZM7.75274 3.93854C9.50125 2.8943 11.5203 2.36 13.84 2.36V0.359999C11.1997 0.359999 8.81876 0.972368 6.72726 2.22145L7.75274 3.93854ZM13.84 2.36C16.1599 2.36 18.1631 2.89435 19.882 3.93536L20.918 2.22464C18.8502 0.97231 16.4801 0.359999 13.84 0.359999V2.36ZM19.8873 3.93854C21.6259 4.97688 22.9919 6.49031 23.9812 8.51842L25.7788 7.64157C24.6348 5.29635 23.0141 3.47645 20.9127 2.22146L19.8873 3.93854ZM23.9856 8.52721C24.9935 10.5431 25.52 13.0218 25.52 16H27.52C27.52 12.7915 26.9531 9.99019 25.7744 7.63278L23.9856 8.52721ZM25.52 16C25.52 18.9782 24.9935 21.4569 23.9856 23.4728L25.7744 24.3672C26.9531 22.0098 27.52 19.2085 27.52 16H25.52ZM23.9812 23.4816C22.9919 25.5097 21.6259 27.0231 19.8873 28.0615L20.9127 29.7785C23.0141 28.5235 24.6348 26.7036 25.7788 24.3584L23.9812 23.4816ZM19.882 28.0646C18.1631 29.1056 16.1599 29.64 13.84 29.64V31.64C16.4801 31.64 18.8502 31.0277 20.918 29.7754L19.882 28.0646ZM13.84 24.08C14.7106 24.08 15.4907 23.7684 16.1444 23.1874L14.8156 21.6926C14.5093 21.9649 14.1961 22.08 13.84 22.08V24.08ZM16.1444 23.1874C16.843 22.5664 17.2824 21.6049 17.5687 20.4884L15.6313 19.9916C15.3843 20.9551 15.077 21.4603 14.8156 21.6926L16.1444 23.1874ZM17.5625 20.5115C17.8916 19.3444 18.04 17.827 18.04 16H16.04C16.04 17.7464 15.8951 19.0555 15.6376 19.9685L17.5625 20.5115ZM18.04 16C18.04 14.1497 17.8922 12.6277 17.5606 11.4819L15.6394 12.0381C15.8944 12.919 16.04 14.2236 16.04 16H18.04ZM17.5687 11.5116C17.2824 10.3951 16.843 9.43364 16.1444 8.81259L14.8156 10.3074C15.077 10.5397 15.3843 11.0449 15.6313 12.0084L17.5687 11.5116ZM16.1444 8.81259C15.4907 8.23159 14.7106 7.92 13.84 7.92V9.92C14.1961 9.92 14.5093 10.0351 14.8156 10.3074L16.1444 8.81259ZM13.84 7.92C12.9694 7.92 12.1893 8.23159 11.5356 8.81259L12.8644 10.3074C13.1707 10.0351 13.4839 9.92 13.84 9.92V7.92ZM11.5356 8.81259C10.8456 9.42599 10.3912 10.3765 10.0776 11.4885L12.0025 12.0315C12.2755 11.0635 12.5944 10.5473 12.8644 10.3074L11.5356 8.81259ZM10.0729 11.5055C9.77415 12.6409 9.64 14.1535 9.64 16H11.64C11.64 14.2198 11.7725 12.9058 12.0071 12.0145L10.0729 11.5055ZM9.64 16C9.64 17.8229 9.77468 19.3314 10.0713 20.4884L12.0087 19.9916C11.772 19.0686 11.64 17.7504 11.64 16H9.64ZM10.0776 20.5115C10.3912 21.6235 10.8456 22.574 11.5356 23.1874L12.8644 21.6926C12.5944 21.4527 12.2755 20.9365 12.0025 19.9685L10.0776 20.5115ZM11.5356 23.1874C12.1893 23.7684 12.9694 24.08 13.84 24.08V22.08C13.4839 22.08 13.1707 21.9649 12.8644 21.6926L11.5356 23.1874ZM28.6153 25.2H27.6153V26.2H28.6153V25.2ZM28.6153 19.2L27.7925 18.6317L27.6153 18.8882V19.2H28.6153ZM40.4953 2V0.999998H39.9707L39.6725 1.43168L40.4953 2ZM50.1753 2L51.008 2.5538L52.0414 0.999998H50.1753V2ZM38.7353 19.2L38.448 20.1578L39.1576 20.3707L39.568 19.7538L38.7353 19.2ZM34.3353 17.88V16.88L34.048 18.8378L34.3353 17.88ZM56.0153 17.88H57.0153V16.88H56.0153V17.88ZM56.0153 25.2V26.2H57.0153V25.2H56.0153ZM43.1353 30H42.1353V31H43.1353V30ZM43.1353 25.2L42.136 25.1618L42.1353 25.1809V25.2H43.1353ZM43.4153 17.88L44.4146 17.9182L44.4153 17.8991V17.88H43.4153ZM43.4153 13.6V12.6H42.4153V13.6H43.4153ZM52.2953 13.6H53.2953V12.6H52.2953V13.6ZM52.2953 30V31H53.2953V30H52.2953ZM29.6153 25.2V19.2H27.6153V25.2H29.6153ZM29.4381 19.7683L41.3181 2.56831L39.6725 1.43168L27.7925 18.6317L29.4381 19.7683ZM40.4953 3H50.1753V0.999998H40.4953V3ZM49.3427 1.44619L37.9027 18.6462L39.568 19.7538L51.008 2.5538L49.3427 1.44619ZM39.0227 18.2422L34.6227 16.9222L34.048 18.8378L38.448 20.1578L39.0227 18.2422ZM34.3353 18.88H56.0153V16.88H34.3353V18.88ZM55.0153 17.88V25.2H57.0153V17.88H55.0153ZM56.0153 24.2H28.6153V26.2H56.0153V24.2ZM44.1353 30V25.2H42.1353V30H44.1353ZM44.1346 25.2382L44.4146 17.9182L42.416 17.8418L42.136 25.1618L44.1346 25.2382ZM44.4153 17.88V13.6H42.4153V17.88H44.4153ZM43.4153 14.6H52.2953V12.6H43.4153V14.6ZM51.2953 13.6V30H53.2953V13.6H51.2953ZM52.2953 29H43.1353V31H52.2953V29ZM59.2731 28.96L58.5754 29.6765L58.5854 29.686L59.2731 28.96ZM59.2731 21.48L58.5956 20.7445V20.7445L59.2731 21.48ZM66.7931 21.48L67.4706 20.7445V20.7445L66.7931 21.48ZM66.7931 28.96L67.4809 29.686L67.4907 29.6765L66.7931 28.96ZM63.0331 29.4C61.776 29.4 60.7747 29.005 59.9609 28.234L58.5854 29.686C59.7982 30.835 61.3035 31.4 63.0331 31.4V29.4ZM59.9707 28.2435C59.1662 27.4602 58.7531 26.4725 58.7531 25.2H56.7531C56.7531 26.9675 57.3534 28.4865 58.5755 29.6765L59.9707 28.2435ZM58.7531 25.2C58.7531 23.8949 59.1692 22.9353 59.9506 22.2155L58.5956 20.7445C57.3504 21.8914 56.7531 23.4118 56.7531 25.2H58.7531ZM59.9506 22.2155C60.7631 21.4672 61.7678 21.08 63.0331 21.08V19.08C61.3117 19.08 59.8098 19.6261 58.5956 20.7445L59.9506 22.2155ZM63.0331 21.08C64.2984 21.08 65.3032 21.4672 66.1156 22.2155L67.4706 20.7445C66.2564 19.6261 64.7545 19.08 63.0331 19.08V21.08ZM66.1156 22.2155C66.8971 22.9353 67.3131 23.8949 67.3131 25.2H69.3131C69.3131 23.4118 68.7159 21.8914 67.4706 20.7445L66.1156 22.2155ZM67.3131 25.2C67.3131 26.4725 66.9 27.4602 66.0955 28.2435L67.4907 29.6765C68.7129 28.4865 69.3131 26.9675 69.3131 25.2H67.3131ZM66.1054 28.234C65.2916 29.005 64.2902 29.4 63.0331 29.4V31.4C64.7627 31.4 66.268 30.835 67.4809 29.686L66.1054 28.234Z" fill="#78213A" mask="url(#path-1-outside-1_627_4216)"/>
</svg>

<svg width="70" height="32" viewBox="0 0 70 32" fill="none" xmlns="http://www.w3.org/2000/svg"><mask id="path-1-outside-1_627_4216" maskUnits="userSpaceOnUse" x="0" y="0" width="70" height="32" fill="#000"><path fill="#fff" d="M0 0h70v32H0z"/><path d="M13.84 30.64c-2.48 0-4.68-.573-6.6-1.72-1.893-1.147-3.387-2.813-4.48-5-1.067-2.187-1.6-4.827-1.6-7.92s.533-5.733 1.6-7.92c1.093-2.187 2.587-3.853 4.48-5 1.92-1.147 4.12-1.72 6.6-1.72 2.48 0 4.667.573 6.56 1.72 1.92 1.147 3.413 2.813 4.48 5 1.093 2.187 1.64 4.827 1.64 7.92s-.547 5.733-1.64 7.92c-1.067 2.187-2.56 3.853-4.48 5-1.893 1.147-4.08 1.72-6.56 1.72zm0-7.56c.613 0 1.16-.213 1.64-.64.48-.427.853-1.16 1.12-2.2.293-1.04.44-2.453.44-4.24 0-1.813-.147-3.227-.44-4.24-.267-1.04-.64-1.773-1.12-2.2-.48-.427-1.027-.64-1.64-.64s-1.16.213-1.64.64c-.48.427-.867 1.16-1.16 2.2-.267 1.013-.4 2.427-.4 4.24 0 1.787.133 3.2.4 4.24.293 1.04.68 1.773 1.16 2.2.48.427 1.027.64 1.64.64zm14.775 2.12v-6L40.495 2h9.68l-11.44 17.2-4.4-1.32h21.68v7.32h-27.4zm14.52 4.8v-4.8l.28-7.32V13.6h8.88V30h-9.16zm19.898.4c-1.493 0-2.747-.48-3.76-1.44-1.013-.987-1.52-2.24-1.52-3.76 0-1.547.507-2.787 1.52-3.72 1.013-.933 2.267-1.4 3.76-1.4 1.493 0 2.747.467 3.76 1.4 1.013.933 1.52 2.173 1.52 3.72 0 1.52-.507 2.773-1.52 3.76-1.013.96-2.267 1.44-3.76 1.44z"/></mask><path d="M7.24 28.92l-.518.855.005.004.513-.859zm-4.48-5l-.899.438.005.01.894-.448zm0-15.84l-.894-.447-.005.009.899.438zm4.48-5l-.513-.859-.005.004.518.855zm13.16 0l-.518.855.005.004.513-.859zm4.48 5l-.899.438.005.01.894-.448zm0 15.84l-.895-.447-.004.009.899.438zm-4.48 5l-.513-.859-.005.004.518.855zm-3.8-8.68l-.962-.271-.004.011-.003.012.969.248zm0-8.48l-.969.248.004.015.004.015.961-.278zm-1.12-2.2l.664-.747-.664.747zm-3.28 0l-.664-.747.664.747zm-1.16 2.2l-.962-.271-.003.008-.002.008.967.255zm0 8.48l-.969.248.003.012.004.012.962-.272zm2.8 9.4c-2.32 0-4.339-.534-6.087-1.579L6.727 29.78c2.093 1.247 4.473 1.86 7.113 1.86v-2zm-6.082-1.575c-1.715-1.04-3.086-2.556-4.104-4.592l-1.788.894c1.168 2.337 2.785 4.154 4.856 5.408l1.036-1.71zm-4.1-4.583C2.675 21.463 2.16 18.982 2.16 16h-2c0 3.205.552 6.003 1.701 8.358l1.798-.876zM2.16 16c0-2.981.514-5.463 1.499-7.482L1.86 7.642C.712 9.997.16 12.795.16 16h2zm1.494-7.473c1.018-2.036 2.389-3.553 4.104-4.592l-1.036-1.71c-2.071 1.254-3.688 3.07-4.856 5.408l1.788.894zM7.753 3.94C9.5 2.894 11.52 2.36 13.84 2.36v-2c-2.64 0-5.021.612-7.113 1.861L7.753 3.94zm6.087-1.58c2.32 0 4.323.534 6.042 1.575l1.036-1.71C18.85.972 16.48.36 13.84.36v2zm6.047 1.579c1.739 1.038 3.105 2.551 4.094 4.58l1.798-.877c-1.144-2.346-2.765-4.166-4.866-5.42l-1.026 1.717zm4.099 4.588c1.008 2.016 1.534 4.495 1.534 7.473h2c0-3.209-.567-6.01-1.746-8.367l-1.788.894zM25.52 16c0 2.978-.526 5.457-1.534 7.473l1.788.894c1.18-2.357 1.746-5.159 1.746-8.367h-2zm-1.539 7.482c-.99 2.028-2.355 3.541-4.094 4.58l1.026 1.716c2.101-1.255 3.722-3.074 4.866-5.42l-1.798-.876zm-4.099 4.583c-1.719 1.04-3.722 1.575-6.042 1.575v2c2.64 0 5.01-.612 7.078-1.865l-1.036-1.71zM13.84 24.08c.87 0 1.65-.312 2.304-.893l-1.328-1.494c-.307.272-.62.387-.976.387v2zm2.304-.893c.699-.62 1.138-1.582 1.425-2.699l-1.938-.496c-.247.963-.554 1.468-.815 1.7l1.328 1.495zm1.419-2.675c.329-1.168.477-2.685.477-4.512h-2c0 1.746-.145 3.055-.402 3.968l1.925.544zM18.04 16c0-1.85-.148-3.372-.48-4.518l-1.92.556c.254.881.4 2.186.4 3.962h2zm-.471-4.488c-.287-1.117-.726-2.078-1.425-2.7l-1.328 1.495c.261.233.568.738.815 1.701l1.938-.496zm-1.425-2.7c-.653-.58-1.433-.892-2.304-.892v2c.356 0 .67.115.976.387l1.328-1.494zM13.84 7.92c-.87 0-1.65.312-2.304.893l1.328 1.494c.307-.272.62-.387.976-.387v-2zm-2.304.893c-.69.613-1.145 1.563-1.458 2.675l1.925.543c.272-.968.591-1.484.861-1.724l-1.328-1.494zm-1.463 2.692C9.774 12.641 9.64 14.153 9.64 16h2c0-1.78.133-3.094.367-3.986l-1.934-.508zM9.64 16c0 1.823.135 3.331.431 4.488l1.938-.496c-.237-.923-.369-2.242-.369-3.992h-2zm.438 4.512c.313 1.111.768 2.062 1.458 2.675l1.328-1.494c-.27-.24-.589-.757-.862-1.725l-1.924.544zm1.458 2.675c.653.581 1.433.893 2.304.893v-2c-.356 0-.67-.115-.976-.387l-1.328 1.494zm17.08 2.013h-1v1h1v-1zm0-6l-.823-.568-.178.256v.312h1zM40.495 2V1h-.525l-.298.432.822.568zm9.68 0l.832.554L52.041 1h-1.866v1zm-11.44 17.2l-.288.958.71.213.41-.617-.833-.554zm-4.4-1.32v-1l-.288 1.958.287-.958zm21.68 0h1v-1h-1v1zm0 7.32v1h1v-1h-1zM43.135 30h-1v1h1v-1zm0-4.8l-1-.038v.038h1zm.28-7.32l.999.038v-.038h-1zm0-4.28v-1h-1v1h1zm8.88 0h1v-1h-1v1zm0 16.4v1h1v-1h-1zm-22.68-4.8v-6h-2v6h2zm-.178-5.432l11.88-17.2-1.645-1.136-11.88 17.2 1.645 1.136zM40.495 3h9.68V1h-9.68v2zm8.848-1.554l-11.44 17.2 1.665 1.108 11.44-17.2-1.665-1.108zm-10.32 16.796l-4.4-1.32-.575 1.916 4.4 1.32.575-1.916zm-4.688.638h21.68v-2h-21.68v2zm20.68-1v7.32h2v-7.32h-2zm1 6.32h-27.4v2h27.4v-2zM44.135 30v-4.8h-2V30h2zm0-4.762l.28-7.32-1.999-.076-.28 7.32 1.999.076zm.28-7.358V13.6h-2v4.28h2zm-1-3.28h8.88v-2h-8.88v2zm7.88-1V30h2V13.6h-2zm1 15.4h-9.16v2h9.16v-2zm6.978-.04l-.698.716.01.01.688-.726zm0-7.48l-.677-.736.677.736zm7.52 0l.678-.736-.678.736zm0 7.48l.688.726.01-.01-.698-.716zm-3.76.44c-1.257 0-2.258-.395-3.072-1.166l-1.376 1.452c1.213 1.149 2.718 1.714 4.448 1.714v-2zm-3.062-1.156c-.805-.784-1.218-1.771-1.218-3.044h-2c0 1.768.6 3.287 1.822 4.477l1.396-1.433zM58.753 25.2c0-1.305.416-2.265 1.198-2.985l-1.355-1.47c-1.246 1.146-1.843 2.667-1.843 4.455h2zm1.198-2.985c.812-.748 1.817-1.135 3.082-1.135v-2c-1.721 0-3.223.546-4.437 1.665l1.355 1.47zm3.082-1.135c1.265 0 2.27.387 3.083 1.136l1.355-1.472c-1.215-1.118-2.717-1.664-4.438-1.664v2zm3.083 1.136c.781.72 1.197 1.679 1.197 2.984h2c0-1.788-.597-3.309-1.842-4.456l-1.355 1.471zm1.197 2.984c0 1.273-.413 2.26-1.218 3.044l1.396 1.433c1.222-1.19 1.822-2.71 1.822-4.477h-2zm-1.208 3.034c-.813.771-1.815 1.166-3.072 1.166v2c1.73 0 3.235-.565 4.448-1.714l-1.376-1.452z" fill="#78213A" mask="url(#path-1-outside-1_627_4216)"/></svg>
